ronoco-documentation/src/v2.x/static/nodered/record.svg

<?xml version="1.0" encoding="UTF-8" standalone="no"?>
<!-- Generator: Adobe Illustrator 19.0.0, SVG Export Plug-In . SVG Version: 6.00 Build 0)  -->

<svg
   version="1.1"
   id="Capa_1"
   x="0px"
   y="0px"
   viewBox="0 0 496 496"
   style="enable-background:new 0 0 496 496;"
   xml:space="preserve"
   sodipodi:docname="record.svg"
   inkscape:version="1.1 (ce6663b3b7, 2021-05-25)"
   xmlns:inkscape="http://www.inkscape.org/namespaces/inkscape"
   xmlns:sodipodi="http://sodipodi.sourceforge.net/DTD/sodipodi-0.dtd"
   xmlns="http://www.w3.org/2000/svg"
   xmlns:svg="http://www.w3.org/2000/svg"><defs
   id="defs1248" /><sodipodi:namedview
   id="namedview1246"
   pagecolor="#ffffff"
   bordercolor="#666666"
   borderopacity="1.0"
   inkscape:pageshadow="2"
   inkscape:pageopacity="0.0"
   inkscape:pagecheckerboard="0"
   showgrid="false"
   inkscape:zoom="1.3366935"
   inkscape:cx="19.825038"
   inkscape:cy="248.37406"
   inkscape:window-width="1392"
   inkscape:window-height="851"
   inkscape:window-x="1992"
   inkscape:window-y="27"
   inkscape:window-maximized="1"
   inkscape:current-layer="Capa_1" />
<g
   id="g1213"
   style="fill:#ffffff;fill-opacity:1">
	<g
   id="g1211"
   style="fill:#ffffff;fill-opacity:1">
		<g
   id="g1209"
   style="fill:#ffffff;fill-opacity:1">
			<path
   d="M248,0C111.033,0,0,111.033,0,248s111.033,248,248,248c136.903-0.154,247.846-111.097,248-248     C496,111.033,384.967,0,248,0z M248,480C119.87,480,16,376.13,16,248S119.87,16,248,16c128.07,0.146,231.855,103.93,232,232     C480,376.13,376.13,480,248,480z"
   id="path1205"
   style="fill:#ffffff;fill-opacity:1" />
			<path
   d="M248,56C141.961,56,56,141.961,56,248s85.961,192,192,192s192-85.961,192-192C439.974,141.972,354.028,56.026,248,56z      M248,320c-39.764,0-72-32.236-72-72c0-39.765,32.236-72,72-72c39.765,0,72,32.235,72,72C320,287.764,287.765,320,248,320z"
   id="path1207"
   style="fill:#ffffff;fill-opacity:1" />
		</g>
	</g>
</g>
<g
   id="g1215"
   style="fill:#ffffff;fill-opacity:1">
</g>
<g
   id="g1217"
   style="fill:#ffffff;fill-opacity:1">
</g>
<g
   id="g1219"
   style="fill:#ffffff;fill-opacity:1">
</g>
<g
   id="g1221"
   style="fill:#ffffff;fill-opacity:1">
</g>
<g
   id="g1223"
   style="fill:#ffffff;fill-opacity:1">
</g>
<g
   id="g1225"
   style="fill:#ffffff;fill-opacity:1">
</g>
<g
   id="g1227"
   style="fill:#ffffff;fill-opacity:1">
</g>
<g
   id="g1229"
   style="fill:#ffffff;fill-opacity:1">
</g>
<g
   id="g1231"
   style="fill:#ffffff;fill-opacity:1">
</g>
<g
   id="g1233"
   style="fill:#ffffff;fill-opacity:1">
</g>
<g
   id="g1235"
   style="fill:#ffffff;fill-opacity:1">
</g>
<g
   id="g1237"
   style="fill:#ffffff;fill-opacity:1">
</g>
<g
   id="g1239"
   style="fill:#ffffff;fill-opacity:1">
</g>
<g
   id="g1241"
   style="fill:#ffffff;fill-opacity:1">
</g>
<g
   id="g1243"
   style="fill:#ffffff;fill-opacity:1">
</g>
</svg>

<?xml version="1.0" encoding="UTF-8" standalone="no"?>
<!-- Generator: Adobe Illustrator 19.0.0, SVG Export Plug-In . SVG Version: 6.00 Build 0)  -->

<svg
   version="1.1"
   id="Capa_1"
   x="0px"
   y="0px"
   viewBox="0 0 711 711"
   xml:space="preserve"
   sodipodi:docname="record.svg"
   inkscape:version="1.1 (ce6663b3b7, 2021-05-25)"
   width="711"
   height="711"
   xmlns:inkscape="http://www.inkscape.org/namespaces/inkscape"
   xmlns:sodipodi="http://sodipodi.sourceforge.net/DTD/sodipodi-0.dtd"
   xmlns="http://www.w3.org/2000/svg"
   xmlns:svg="http://www.w3.org/2000/svg"><defs
   id="defs1248" /><sodipodi:namedview
   id="namedview1246"
   pagecolor="#ffffff"
   bordercolor="#666666"
   borderopacity="1.0"
   inkscape:pageshadow="2"
   inkscape:pageopacity="0.0"
   inkscape:pagecheckerboard="0"
   showgrid="false"
   inkscape:zoom="0.66834675"
   inkscape:cx="127.17949"
   inkscape:cy="375.55356"
   inkscape:window-width="1600"
   inkscape:window-height="863"
   inkscape:window-x="0"
   inkscape:window-y="0"
   inkscape:window-maximized="1"
   inkscape:current-layer="Capa_1" />
<g
   id="g1213"
   style="fill:#ffffff;fill-opacity:1"
   transform="scale(1.4334677)">
	<g
   id="g1211"
   style="fill:#ffffff;fill-opacity:1">
		<g
   id="g1209"
   style="fill:#ffffff;fill-opacity:1">
			<path
   d="M 248,0 C 111.033,0 0,111.033 0,248 0,384.967 111.033,496 248,496 384.903,495.846 495.846,384.903 496,248 496,111.033 384.967,0 248,0 Z m 0,480 C 119.87,480 16,376.13 16,248 16,119.87 119.87,16 248,16 376.07,16.146 479.855,119.93 480,248 480,376.13 376.13,480 248,480 Z"
   id="path1205"
   style="fill:#ffffff;fill-opacity:1" />
			<path
   d="M 248,56 C 141.961,56 56,141.961 56,248 56,354.039 141.961,440 248,440 354.039,440 440,354.039 440,248 439.974,141.972 354.028,56.026 248,56 Z m 0,264 c -39.764,0 -72,-32.236 -72,-72 0,-39.765 32.236,-72 72,-72 39.765,0 72,32.235 72,72 0,39.764 -32.235,72 -72,72 z"
   id="path1207"
   style="fill:#ffffff;fill-opacity:1" />
		</g>
	</g>
</g>
<g
   id="g1215"
   style="fill:#ffffff;fill-opacity:1"
   transform="scale(1.4334677)">
</g>
<g
   id="g1217"
   style="fill:#ffffff;fill-opacity:1"
   transform="scale(1.4334677)">
</g>
<g
   id="g1219"
   style="fill:#ffffff;fill-opacity:1"
   transform="scale(1.4334677)">
</g>
<g
   id="g1221"
   style="fill:#ffffff;fill-opacity:1"
   transform="scale(1.4334677)">
</g>
<g
   id="g1223"
   style="fill:#ffffff;fill-opacity:1"
   transform="scale(1.4334677)">
</g>
<g
   id="g1225"
   style="fill:#ffffff;fill-opacity:1"
   transform="scale(1.4334677)">
</g>
<g
   id="g1227"
   style="fill:#ffffff;fill-opacity:1"
   transform="scale(1.4334677)">
</g>
<g
   id="g1229"
   style="fill:#ffffff;fill-opacity:1"
   transform="scale(1.4334677)">
</g>
<g
   id="g1231"
   style="fill:#ffffff;fill-opacity:1"
   transform="scale(1.4334677)">
</g>
<g
   id="g1233"
   style="fill:#ffffff;fill-opacity:1"
   transform="scale(1.4334677)">
</g>
<g
   id="g1235"
   style="fill:#ffffff;fill-opacity:1"
   transform="scale(1.4334677)">
</g>
<g
   id="g1237"
   style="fill:#ffffff;fill-opacity:1"
   transform="scale(1.4334677)">
</g>
<g
   id="g1239"
   style="fill:#ffffff;fill-opacity:1"
   transform="scale(1.4334677)">
</g>
<g
   id="g1241"
   style="fill:#ffffff;fill-opacity:1"
   transform="scale(1.4334677)">
</g>
<g
   id="g1243"
   style="fill:#ffffff;fill-opacity:1"
   transform="scale(1.4334677)">
</g>
</svg>
